src/assets/icons/letters,fancy,serif-k.svg

<svg width="48" height="48" viewBox="0 0 48 48" fill="none" xmlns="http://www.w3.org/2000/svg">
<path d="M19.283 30.882C19.283 31.8447 19.321 32.6173 19.397 33.2C19.4983 33.7827 19.6756 34.2387 19.929 34.568C20.1823 34.8973 20.537 35.1253 20.993 35.252C21.4743 35.3787 22.1076 35.4547 22.893 35.48V37H9.70695V35.48C10.543 35.4547 11.227 35.3787 11.759 35.252C12.291 35.1253 12.6963 34.91 12.975 34.606C13.2536 34.302 13.4436 33.8713 13.545 33.314C13.6463 32.7567 13.697 32.0347 13.697 31.148V13.592C13.697 12.7307 13.6463 12.0213 13.545 11.464C13.469 10.9067 13.3043 10.476 13.051 10.172C12.7976 9.868 12.4303 9.65266 11.949 9.526C11.493 9.39933 10.885 9.31067 10.125 9.26V7.74H23.235V9.26C22.3736 9.28533 21.677 9.36133 21.145 9.488C20.6383 9.61467 20.2456 9.84267 19.967 10.172C19.6883 10.5013 19.4983 10.9573 19.397 11.54C19.321 12.1227 19.283 12.8953 19.283 13.858V22.294L29.125 11.73C29.7076 11.0967 29.999 10.5647 29.999 10.134C29.999 9.85533 29.809 9.64 29.429 9.488C29.0743 9.336 28.403 9.26 27.415 9.26V7.74H37.789V9.222C37.2316 9.24733 36.7376 9.298 36.307 9.374C35.9016 9.45 35.4836 9.61467 35.053 9.868C34.6476 10.1213 34.179 10.4887 33.647 10.97C33.1403 11.426 32.507 12.0467 31.747 12.832L24.983 19.9L36.155 33.504C36.687 34.1627 37.2696 34.644 37.903 34.948C38.5616 35.252 39.3976 35.4293 40.411 35.48V37H26.351V35.48C27.3896 35.4547 28.137 35.366 28.593 35.214C29.049 35.062 29.277 34.8087 29.277 34.454C29.277 34.3273 29.2516 34.2133 29.201 34.112C29.1756 33.9853 29.1123 33.846 29.011 33.694C28.935 33.5167 28.8083 33.314 28.631 33.086C28.4536 32.8327 28.213 32.5287 27.909 32.174L21.183 23.89L19.283 25.866V30.882Z" fill="black"/>
</svg>

<svg xmlns="http://www.w3.org/2000/svg" width="48" height="48" fill="none" viewBox="0 0 48 48">
  <path fill="#000" d="M19.283 30.882c0 .963.038 1.735.114 2.318.101.583.279 1.039.532 1.368.253.33.608.557 1.064.684.481.127 1.115.203 1.9.228V37H9.707v-1.52c.836-.025 1.52-.101 2.052-.228s.937-.342 1.216-.646c.279-.304.469-.735.57-1.292.101-.557.152-1.28.152-2.166V13.592c0-.861-.05-1.57-.152-2.128-.076-.557-.24-.988-.494-1.292-.253-.304-.62-.52-1.102-.646-.456-.127-1.064-.215-1.824-.266V7.74h13.11v1.52c-.861.025-1.558.101-2.09.228-.507.127-.9.355-1.178.684-.279.33-.469.785-.57 1.368-.076.583-.114 1.355-.114 2.318v8.436l9.842-10.564c.583-.633.874-1.165.874-1.596 0-.279-.19-.494-.57-.646-.355-.152-1.026-.228-2.014-.228V7.74h10.374v1.482c-.557.025-1.051.076-1.482.152-.405.076-.823.24-1.254.494-.405.253-.874.62-1.406 1.102a40.207 40.207 0 00-1.9 1.862L24.983 19.9l11.172 13.604c.532.659 1.115 1.14 1.748 1.444.659.304 1.495.481 2.508.532V37h-14.06v-1.52c1.039-.025 1.786-.114 2.242-.266.456-.152.684-.405.684-.76a.755.755 0 00-.076-.342 1.2 1.2 0 00-.19-.418 2.884 2.884 0 00-.38-.608 12.295 12.295 0 00-.722-.912l-6.726-8.284-1.9 1.976v5.016z"/>
</svg>
